Origami/22x22/apps/QOwnNotes.svg

<svg width="22" height="22" version="1" xmlns="http://www.w3.org/2000/svg">
 <path d="m20 1c0.554 0 1 0.446 1 1v18c0 0.554-0.446 1-1 1h-11l-8-8v-11c0-0.554 0.446-1 1-1z" style="fill:#303d75"/>
 <path d="m11 4.4999982a3.5000006 3.5000006 0 0 0 -3.4999999 3.4999998 3.5000006 3.5000006 0 0 0 0.04004 0.500977 2.5000004 2.5000004 0 0 0 -0.04004 -9.75e-4 2.5000004 2.5000004 0 0 0 -2.5 2.5 2.5000004 2.5000004 0 0 0 2.5 2.5h6.4999999a3.0000005 3.0000005 0 0 0 3 -3 3.0000005 3.0000005 0 0 0 -2.534179 -2.960938 3.5000006 3.5000006 0 0 0 -3.465821 -3.0390623zm-1e-3 1h1e-3c1.259674 0.0018 2.3087 0.9220846 2.47461 2.1708988a1.0001 1.0001 0 0 0 0.835937 0.856445c0.979046 0.153886 1.688569 0.982567 1.689453 1.973633-5.5e-4 1.115932-0.883927 1.999022-2 1.999023h-6.4999999c-0.8402705-1e-6 -1.499999-0.659729-1.5-1.5-1e-6 -0.840272 0.659728-1.499999 1.5-1.5 1e-3 3.5e-5 0.00195-3.7e-5 0.00295 0a1.0001 1.0001 0 0 0 1.025391 -1.15039c-0.017846-0.116512-0.027131-0.23371-0.028341-0.351563 0.00107-1.3912792 1.1076069-2.4975168 2.4990239-2.4980468z" style="opacity:.2"/>
 <path d="m1 13h7c0.5523 0 1 0.44772 1 1v7z" style="fill:#44559e"/>
 <path d="m11 3.9999982a3.5000006 3.5000006 0 0 0 -3.4999999 3.4999998 3.5000006 3.5000006 0 0 0 0.04004 0.500977 2.5000004 2.5000004 0 0 0 -0.04004 -9.75e-4 2.5000004 2.5000004 0 0 0 -2.5 2.5 2.5000004 2.5000004 0 0 0 2.5 2.5h6.4999999a3.0000005 3.0000005 0 0 0 3 -3 3.0000005 3.0000005 0 0 0 -2.534179 -2.960938 3.5000006 3.5000006 0 0 0 -3.465821 -3.0390623zm-1e-3 1h1e-3c1.259674 0.0018 2.3087 0.9220846 2.47461 2.1708988a1.0001 1.0001 0 0 0 0.835937 0.856445c0.979046 0.153886 1.688569 0.982567 1.689453 1.973633-5.5e-4 1.115932-0.883927 1.999022-2 1.999023h-6.4999999c-0.8402705-1e-6 -1.499999-0.659729-1.5-1.5-1e-6 -0.840272 0.659728-1.499999 1.5-1.5 1e-3 3.5e-5 0.00195-3.7e-5 0.00295 0a1.0001 1.0001 0 0 0 1.025391 -1.15039c-0.017846-0.116512-0.027131-0.23371-0.028341-0.351563 0.00107-1.3912792 1.1076069-2.4975168 2.4990239-2.4980468z" style="fill:#5d8cb9"/>
 <path d="m20 1c0.554 0 1 0.446 1 1v0.5c0-0.554-0.446-1-1-1h-18c-0.554 0-1 0.446-1 1v-0.5c0-0.554 0.446-1 1-1z" style="fill:#ffffff;opacity:.1"/>
 <path d="m8 13c0.5523 0 1 0.44772 1 1v0.5c0-0.5523-0.44772-1-1-1h-6.5l-0.5-0.5h7z" style="fill:#ffffff;opacity:.1"/>
 <path d="m1.998 13.998 7.002 7.002h11c0.554 0 1-0.446 1-1v0.5c0 0.554-0.446 1-1 1h-11l-7.486-7.486z" style="opacity:.2"/>
</svg>

<svg xmlns="http://www.w3.org/2000/svg" width="22" height="22" version="1">
 <path style="fill:#303d75" d="m 20,1 c 0.554,0 1,0.446 1,1 l 0,18 c 0,0.554 -0.446,1 -1,1 L 9,21 1,13 1,2 C 1,1.446 1.446,1 2,1 Z"/>
 <path style="opacity:0.2" d="M 11,4.4999982 A 3.5000006,3.5000006 0 0 0 7.5000001,7.999998 3.5000006,3.5000006 0 0 0 7.5400401,8.500975 2.5000004,2.5000004 0 0 0 7.5000001,8.5 a 2.5000004,2.5000004 0 0 0 -2.5,2.5 2.5000004,2.5000004 0 0 0 2.5,2.5 L 14,13.5 a 3.0000005,3.0000005 0 0 0 3,-3 A 3.0000005,3.0000005 0 0 0 14.465821,7.539062 3.5000006,3.5000006 0 0 0 11,4.4999997 Z m -10e-4,1 10e-4,0 c 1.259674,0.0018 2.3087,0.9220846 2.47461,2.1708988 a 1.0001,1.0001 0 0 0 0.835937,0.856445 C 15.289593,8.681228 15.999116,9.509909 16,10.500975 c -5.5e-4,1.115932 -0.883927,1.999022 -2,1.999023 l -6.4999999,0 c -0.8402705,-10e-7 -1.499999,-0.659729 -1.5,-1.5 -1e-6,-0.840272 0.659728,-1.499999 1.5,-1.5 10e-4,3.5e-5 0.00195,-3.7e-5 0.00295,0 a 1.0001,1.0001 0 0 0 1.025391,-1.15039 C 8.5104951,8.233096 8.5012101,8.115898 8.5000001,7.998045 8.5010701,6.6067658 9.607607,5.5005282 10.999024,5.4999982 Z"/>
 <path style="fill:#44559e" d="m 1,13 7,0 c 0.5523,0 1,0.44772 1,1 l 0,7 z"/>
 <path style="fill:#5d8cb9" d="M 11,3.9999982 A 3.5000006,3.5000006 0 0 0 7.5000001,7.499998 3.5000006,3.5000006 0 0 0 7.5400401,8.000975 2.5000004,2.5000004 0 0 0 7.5000001,8 a 2.5000004,2.5000004 0 0 0 -2.5,2.5 2.5000004,2.5000004 0 0 0 2.5,2.5 L 14,13 A 3.0000005,3.0000005 0 0 0 17,10 3.0000005,3.0000005 0 0 0 14.465821,7.039062 3.5000006,3.5000006 0 0 0 11,3.9999997 Z m -10e-4,1 10e-4,0 c 1.259674,0.0018 2.3087,0.9220846 2.47461,2.1708988 a 1.0001,1.0001 0 0 0 0.835937,0.856445 C 15.289593,8.181228 15.999116,9.009909 16,10.000975 c -5.5e-4,1.115932 -0.883927,1.999022 -2,1.999023 l -6.4999999,0 c -0.8402705,-10e-7 -1.499999,-0.659729 -1.5,-1.5 -1e-6,-0.840272 0.659728,-1.499999 1.5,-1.5 10e-4,3.5e-5 0.00195,-3.7e-5 0.00295,0 a 1.0001,1.0001 0 0 0 1.025391,-1.15039 C 8.5104951,7.733096 8.5012101,7.615898 8.5000001,7.498045 8.5010701,6.1067658 9.607607,5.0005282 10.999024,4.9999982 Z"/>
 <path style="opacity:0.1;fill:#ffffff" d="m 20,1 c 0.554,0 1,0.446 1,1 l 0,0.5 c 0,-0.554 -0.446,-1 -1,-1 l -18,0 c -0.554,0 -1,0.446 -1,1 L 1,2 C 1,1.446 1.446,1 2,1 Z"/>
 <path style="opacity:0.1;fill:#ffffff" d="m 8,13 c 0.5523,0 1,0.44772 1,1 l 0,0.5 c 0,-0.5523 -0.44772,-1 -1,-1 L 1.5,13.5 1,13 8,13 Z"/>
 <path style="opacity:0.2" d="M 1.998,13.998 9,21 20,21 c 0.554,0 1,-0.446 1,-1 l 0,0.5 c 0,0.554 -0.446,1 -1,1 l -11,0 -7.486,-7.486 z"/>
</svg>
